src/assets/images/work1.svg

<svg width="63" height="50" viewBox="0 0 63 50" fill="none" xmlns="http://www.w3.org/2000/svg">
<path d="M42.6517 25.1196L40.5739 25.8122L38.6895 20.1588L40.5739 14.5054L42.6517 15.1979C44.787 15.9097 46.2272 17.9079 46.2272 20.1587C46.2272 22.4097 44.787 24.4079 42.6517 25.1196Z" fill="#FD4755"/>
<path d="M27.1591 36.0681L25.2766 36.5724L21.5696 32.1514L23.3256 29.2914L26.9661 28.3159L28.4461 33.8389C28.7062 34.8099 28.13 35.8079 27.1591 36.0681Z" fill="#0055A3"/>
<path d="M31.5742 45.5134L31.3053 44.5101C31.0452 43.5392 30.0472 42.9628 29.0762 43.223L28.9515 43.2564C27.9805 43.5164 26.9827 42.9403 26.7226 41.9694L23.9081 31.4655L17.9601 30.2668L12.3066 31.4655C14.5467 31.4655 16.5073 32.97 17.0872 35.1337L19.9459 45.8028C20.4662 47.7446 22.4622 48.8969 24.404 48.3766L30.9305 46.6279C31.046 46.597 31.1542 46.5437 31.2491 46.4709C31.3439 46.3982 31.4235 46.3075 31.4833 46.204C31.543 46.1005 31.5818 45.9862 31.5974 45.8677C31.613 45.7493 31.6052 45.6288 31.5742 45.5134Z" fill="#E41F2D"/>
<path d="M12.3067 8.85205C6.06217 8.85205 1 13.9142 1 20.1588C1 26.4033 6.06217 31.4656 12.3067 31.4656H17.9602L19.8446 20.1588L17.9602 8.85205H12.3067Z" fill="#FD4755"/>
<path d="M7.45346 26.6125C5.5814 26.6125 3.81551 26.1575 2.2605 25.3521C4.14166 28.9839 7.93443 31.4658 12.3068 31.4658H17.9602L18.7692 26.6125H7.45346Z" fill="#FB2B3A"/>
<path d="M37.4668 2.53669L35.5936 4.40984C32.7493 7.25416 28.8916 8.85209 24.8692 8.85211H17.9602V31.4657H24.8692C28.8916 31.4657 32.7493 33.0637 35.5936 35.908L37.4668 37.7811C38.6134 38.9276 40.5738 38.1156 40.5738 36.4943V3.82368C40.5737 2.20217 38.6133 1.39021 37.4668 2.53669Z" fill="#DFF6FD"/>
<path d="M37.4668 2.53669L35.7204 4.28305V28.9917C35.7204 31.5907 32.5781 32.8923 30.7403 31.0545C27.896 28.2102 24.0383 26.6122 20.0158 26.6122H17.9602V31.4656H24.8692C28.8916 31.4656 32.7493 33.0635 35.5936 35.9078L37.4668 37.781C38.6134 38.9275 40.5738 38.1155 40.5738 36.4941V3.82368C40.5737 2.20217 38.6133 1.39021 37.4668 2.53669Z" fill="#C8EFFE"/>
<path d="M59.4186 21.482H53.7651C52.7243 21.482 51.8807 20.6383 51.8807 19.5976C51.8807 18.5568 52.7244 17.7132 53.7651 17.7132H59.4186C60.4594 17.7132 61.303 18.5569 61.303 19.5976C61.303 20.6383 60.4592 21.482 59.4186 21.482ZM55.2316 7.60483L51.234 11.6024C50.4981 12.3383 49.3049 12.3383 48.569 11.6024C47.8331 10.8665 47.8331 9.67333 48.569 8.93744L52.5666 4.93986C53.3025 4.20397 54.4957 4.20397 55.2316 4.93986C55.9675 5.67575 55.9675 6.86894 55.2316 7.60483ZM55.2316 31.5902L51.234 27.5926C50.4981 26.8567 49.3049 26.8567 48.569 27.5926C47.8331 28.3285 47.8331 29.5217 48.569 30.2576L52.5666 34.2552C53.3025 34.9911 54.4957 34.9911 55.2316 34.2552C55.9675 33.5193 55.9675 32.3261 55.2316 31.5902Z" fill="#01C0FA"/>
<path d="M58.8002 17.713H59.4187C60.4595 17.713 61.3032 18.5568 61.3032 19.5975C61.3032 20.6383 60.4594 21.4819 59.4187 21.4819H53.7653C52.7245 21.4819 51.8809 20.6381 51.8809 19.5975C51.8809 18.5567 52.7246 17.713 53.7653 17.713H54.5535M19.624 44.6L19.9464 45.8029C20.4667 47.7447 22.4626 48.897 24.4045 48.3767L30.931 46.628C31.0464 46.597 31.1547 46.5437 31.2495 46.4709C31.3443 46.3982 31.4238 46.3074 31.4836 46.2039C31.5433 46.1004 31.5821 45.9862 31.5977 45.8677C31.6133 45.7492 31.6054 45.6288 31.5744 45.5134L31.3056 44.5101C31.0454 43.5392 30.0475 42.9628 29.0764 43.223L28.9517 43.2563C27.9808 43.5164 26.9829 42.9403 26.7228 41.9694L23.9083 31.4655M12.3071 31.4657C14.5472 31.4657 16.5078 32.9703 17.0877 35.1339L18.479 40.3266M55.2317 7.60483L51.2342 11.6024C50.4983 12.3383 49.3051 12.3383 48.5692 11.6024C47.8333 10.8665 47.8333 9.67333 48.5692 8.93744L52.5668 4.93986C53.3027 4.20397 54.4959 4.20397 55.2317 4.93986C55.9676 5.67575 55.9676 6.86894 55.2317 7.60483ZM55.2317 31.5902L51.2342 27.5926C50.4983 26.8567 49.3051 26.8567 48.5692 27.5926C47.8333 28.3285 47.8333 29.5217 48.5692 30.2576L52.5668 34.2552C53.3027 34.9911 54.4959 34.9911 55.2317 34.2552C55.9676 33.5193 55.9676 32.3261 55.2317 31.5902Z" stroke="black" stroke-width="2" stroke-miterlimit="10" stroke-linecap="round" stroke-linejoin="round"/>
<path d="M27.8916 31.7697L28.4461 33.8389C28.7062 34.8098 28.13 35.8078 27.1591 36.0679L25.2766 36.5723M17.9602 8.85205H12.3067C6.06217 8.85205 1 13.9142 1 20.1588C1 26.4033 6.06217 31.4656 12.3067 31.4656H17.9602" stroke="black" stroke-width="2" stroke-miterlimit="10" stroke-linecap="round" stroke-linejoin="round"/>
<path d="M18.9492 8.85211H17.9602V31.4657H24.8691C28.8916 31.4657 32.7493 33.0637 35.5936 35.908L37.4667 37.7811C38.6134 38.9276 40.5737 38.1156 40.5737 36.4943V3.82368C40.5737 2.20217 38.6134 1.39021 37.4667 2.53669L35.5936 4.40984C32.7493 7.25416 28.8916 8.85209 24.8691 8.85211H23.1958M40.5737 25.8123L42.6516 25.1197C44.7868 24.408 46.227 22.4097 46.227 20.159C46.227 17.9082 44.7868 15.91 42.6516 15.1982L40.5737 14.5057M1.64343 16.39H6.65343M1 20.1588H6.65343M1.64343 23.9278H6.65343M36.8049 8.85211V31.4657M14.1913 12.621V27.6967" stroke="black" stroke-width="2" stroke-miterlimit="10" stroke-linecap="round" stroke-linejoin="round"/>
</svg>

<svg width="63" height="50" fill="none" xmlns="http://www.w3.org/2000/svg"><path d="m42.652 25.12-2.078.692-1.884-5.653 1.884-5.654 2.078.693a5.23 5.23 0 0 1 0 9.922z" fill="#FD4755"/><path d="m27.16 36.068-1.883.504-3.707-4.42 1.756-2.86 3.64-.976 1.48 5.523a1.82 1.82 0 0 1-1.287 2.23z" fill="#0055A3"/><path d="m31.574 45.513-.269-1.003a1.82 1.82 0 0 0-2.229-1.287l-.125.033a1.82 1.82 0 0 1-2.228-1.287l-2.815-10.504-5.948-1.198-5.653 1.198a4.95 4.95 0 0 1 4.78 3.669l2.859 10.669a3.64 3.64 0 0 0 4.458 2.574l6.526-1.75a.91.91 0 0 0 .644-1.114z" fill="#E41F2D"/><path d="M12.307 8.852C6.062 8.852 1 13.914 1 20.16c0 6.244 5.062 11.307 11.307 11.307h5.653l1.885-11.307L17.96 8.852h-5.653z" fill="#FD4755"/><path d="M7.453 26.613c-1.872 0-3.637-.456-5.192-1.26a11.306 11.306 0 0 0 10.046 6.113h5.653l.81-4.854H7.452z" fill="#FB2B3A"/><path d="M37.467 2.537 35.594 4.41a15.167 15.167 0 0 1-10.725 4.442H17.96v22.614h6.91c4.022 0 7.88 1.598 10.724 4.442l1.873 1.873c1.146 1.147 3.107.335 3.107-1.287V3.824c0-1.622-1.96-2.434-3.107-1.287z" fill="#DFF6FD"/><path d="M37.467 2.537 35.72 4.283v24.709c0 2.599-3.142 3.9-4.98 2.063a15.167 15.167 0 0 0-10.724-4.443H17.96v4.854h6.91c4.022 0 7.88 1.597 10.724 4.442l1.873 1.873c1.146 1.147 3.107.334 3.107-1.287V3.824c0-1.622-1.96-2.434-3.107-1.287z" fill="#C8EFFE"/><path d="M59.419 21.482h-5.654a1.884 1.884 0 1 1 0-3.769h5.654a1.884 1.884 0 1 1 0 3.769zM55.232 7.605l-3.998 3.997a1.884 1.884 0 0 1-2.665-2.665l3.998-3.997a1.884 1.884 0 0 1 2.665 2.665zm0 23.985-3.998-3.997a1.884 1.884 0 0 0-2.665 2.665l3.998 3.997a1.884 1.884 0 0 0 2.665-2.665z" fill="#01C0FA"/><path d="M58.8 17.713h.619a1.885 1.885 0 0 1 0 3.769h-5.654a1.884 1.884 0 0 1 0-3.769h.788M19.624 44.6l.322 1.203a3.64 3.64 0 0 0 4.458 2.574l6.527-1.749a.91.91 0 0 0 .643-1.115l-.268-1.003a1.82 1.82 0 0 0-2.23-1.287l-.124.033a1.82 1.82 0 0 1-2.23-1.287l-2.814-10.504m-11.6 0a4.95 4.95 0 0 1 4.78 3.669l1.391 5.193M55.232 7.605l-3.998 3.997a1.884 1.884 0 0 1-2.665-2.665l3.998-3.997a1.884 1.884 0 1 1 2.665 2.665zm0 23.985-3.998-3.997a1.884 1.884 0 0 0-2.665 2.665l3.998 3.997a1.884 1.884 0 1 0 2.665-2.665z" stroke="#000" stroke-width="2" stroke-miterlimit="10" stroke-linecap="round" stroke-linejoin="round"/><path d="m27.892 31.77.554 2.069a1.82 1.82 0 0 1-1.287 2.229l-1.882.504M17.96 8.852h-5.653C6.062 8.852 1 13.914 1 20.16c0 6.244 5.062 11.307 11.307 11.307h5.653" stroke="#000" stroke-width="2" stroke-miterlimit="10" stroke-linecap="round" stroke-linejoin="round"/><path d="M18.95 8.852h-.99v22.614h6.91c4.022 0 7.88 1.598 10.724 4.442l1.873 1.873c1.146 1.147 3.107.335 3.107-1.287V3.824c0-1.622-1.96-2.434-3.107-1.287L35.594 4.41a15.167 15.167 0 0 1-10.725 4.442h-1.673m17.378 16.96 2.078-.692a5.229 5.229 0 0 0 0-9.922l-2.078-.692M1.644 16.39h5.01M1 20.159h5.653m-5.01 3.769h5.01M36.805 8.852v22.614M14.19 12.62v15.076" stroke="#000" stroke-width="2" stroke-miterlimit="10" stroke-linecap="round" stroke-linejoin="round"/></svg>
